src/static/pycontw-2017/images/icon-modal-close.svg

<svg width="24px" height="24px" viewBox="146 568 24 24" version="1.1" xmlns="http://www.w3.org/2000/svg" xmlns:xlink="http://www.w3.org/1999/xlink">
    <defs></defs>
    <path d="M146.247849,591.752151 C146.413081,591.917384 146.619621,592 146.846816,592 C147.07401,592 147.280551,591.917384 147.445783,591.752151 L158,581.197935 L168.554217,591.752151 C168.719449,591.917384 168.92599,592 169.153184,592 C169.359725,592 169.586919,591.917384 169.752151,591.752151 C170.082616,591.421687 170.082616,590.884682 169.752151,590.554217 L159.197935,580 L169.752151,569.445783 C170.082616,569.115318 170.082616,568.578313 169.752151,568.247849 C169.421687,567.917384 168.884682,567.917384 168.554217,568.247849 L158,578.802065 L147.445783,568.247849 C147.115318,567.917384 146.578313,567.917384 146.247849,568.247849 C145.917384,568.578313 145.917384,569.115318 146.247849,569.445783 L156.802065,580 L146.247849,590.554217 C145.917384,590.884682 145.917384,591.421687 146.247849,591.752151 L146.247849,591.752151 Z" id="cancel" stroke="none" fill="#647D92" fill-rule="evenodd"></path>
</svg>

<svg width="24" height="24" viewBox="146 568 24 24" xmlns="http://www.w3.org/2000/svg"><path d="M146.248 591.752a.827.827 0 0 0 .599.248.827.827 0 0 0 .599-.248L158 581.198l10.554 10.554a.827.827 0 0 0 .6.248.848.848 0 0 0 .599-1.446L159.197 580l10.554-10.554a.848.848 0 0 0-1.198-1.198L158 578.802l-10.554-10.554a.848.848 0 0 0-1.198 1.198L156.802 580l-10.554 10.554a.848.848 0 0 0 0 1.198z" fill="#647D92" fill-rule="evenodd"/></svg>
